prototype/04-socket-without-vite/public/assets/img/step3_phones.svg

<svg fill="none" viewBox="0 0 351 251" xmlns="http://www.w3.org/2000/svg">
<path d="m142.88 185.92v0.049m117.85 33.517c1.017-0.011 2.09 1e-3 3.166 0.029 5.613 0.144 9.011-3.378 8.884-8.991-0.026-1.128-0.015-2.235 0.054-3.244 0.223-3.253 1.196-5.649 1.196-8.262 0-3.326-0.25-6.667-0.623-9.953-0.156-1.377-0.573-2.659-0.573-4.041 0-1.695 0.137-3.381 0.184-5.075 0.062-2.211-0.092-4.429-0.092-6.637 0-2.303-0.066-6.969-0.086-8.355-4e-3 -0.265 0-0.523 0.014-0.788 0.021-0.421 0.057-1.154 0.102-2.062 0.295-5.974-3.891-9.956-9.869-9.778-0.812 0.024-1.607 0.034-2.357 0.025-3.29-0.042-5.595-0.722-8.424-0.856-2.023-0.095-4.049-0.191-6.08-0.252-5.498-0.168-11.059-0.098-16.572-0.098-7.017 0-14.064 0.253-20.997 0.629-2.904 0.157-5.609 0.577-8.525 0.577-3.575 0-7.132-0.138-10.705-0.186-4.666-0.062-9.344 0.093-14.002 0.093-5.745 0-11.377-0.379-17.111-0.459-5.377-0.075-14.513-0.059-14.979-0.058h-0.042v0c-6.137-0.02-12.423 6.361-12.1 12.49 6e-3 0.118 0.012 0.227 0.018 0.326 0.167 2.606-0.014 5.649-0.014 8.262 0 3.326-0.251 6.667-0.623 9.954-0.157 1.376-0.573 2.658-0.573 4.04 0 1.695 0.137 3.381 0.184 5.075 0.061 2.212-0.092 4.429-0.092 6.637 0 2.723 0.921 5.312 1.118 8.752 0.016 0.265 0.028 0.536 0.037 0.811 0.208 6.299 5.678 11.653 11.975 11.399v0c0.439-0.018 0.31 0.016 0.748 0.051 1.559 0.126 5.53 0.416 7.769 0.31 2.023-0.095 4.049-0.191 6.08-0.252 5.498-0.168 11.058-0.098 16.572-0.098 7.016 0 14.063 0.252 20.997 0.628 2.904 0.158 5.609 0.578 8.524 0.578 3.576 0 7.133-0.138 10.706-0.186 4.666-0.062 9.344 0.093 14.002 0.093 5.745 0 11.376-0.379 17.111-0.459 5.518-0.077 9.482-0.607 14.998-0.669z" stroke="#111010" stroke-linecap="round" stroke-width="2"/>
<path d="m314.92 118.85h-0.049m-33.517 117.85c0.011 1.017-1e-3 2.091-0.029 3.167-0.143 5.613 3.378 9.011 8.991 8.884 1.128-0.026 2.235-0.015 3.244 0.054 3.253 0.223 5.649 1.196 8.262 1.196 3.326 0 6.667-0.251 9.953-0.624 1.377-0.156 2.659-0.572 4.041-0.572 1.695 0 3.381 0.137 5.075 0.184 2.212 0.061 4.429-0.092 6.637-0.092 2.303 0 6.969-0.066 8.355-0.086 0.265-4e-3 0.523 0 0.788 0.013 0.421 0.021 1.154 0.058 2.062 0.103 5.974 0.294 9.956-3.892 9.778-9.87-0.024-0.811-0.034-1.606-0.025-2.357 0.042-3.289 0.723-5.594 0.856-8.424 0.095-2.022 0.191-4.049 0.253-6.079 0.167-5.499 0.097-11.059 0.097-16.572 0-7.017-0.252-14.064-0.628-20.998-0.158-2.904-0.578-5.609-0.578-8.524 0-3.575 0.138-7.133 0.186-10.705 0.062-4.666-0.093-9.344-0.093-14.003 0-5.744 0.379-11.376 0.459-17.111 0.075-5.376 0.059-14.512 0.059-14.979v-0.041 0c0.019-6.137-6.362-12.424-12.491-12.101-0.118 7e-3 -0.227 0.013-0.326 0.019-2.606 0.166-5.649-0.014-8.262-0.014-3.326 0-6.667-0.251-9.953-0.624-1.377-0.156-2.659-0.572-4.041-0.572-1.695 0-3.381 0.137-5.075 0.184-2.211 0.061-4.429-0.092-6.637-0.092-2.723 0-5.312 0.921-8.752 1.118-0.265 0.015-0.536 0.027-0.811 0.036-6.299 0.209-11.653 5.678-11.399 11.976v0c0.018 0.439-0.016 0.31-0.051 0.747-0.126 1.56-0.416 5.53-0.31 7.77 0.095 2.023 0.191 4.049 0.253 6.079 0.167 5.499 0.098 11.059 0.098 16.573 0 7.016-0.253 14.063-0.629 20.997-0.158 2.904-0.578 5.609-0.578 8.524 0 3.575 0.138 7.133 0.186 10.705 0.062 4.666-0.093 9.344-0.093 14.003 0 5.745 0.379 11.376 0.459 17.111 0.077 5.518 0.608 9.482 0.669 14.997z" stroke="#111010" stroke-linecap="round" stroke-width="2"/>
<path d="m239.24 13.88h-0.049m-33.518 117.85c0.012 1.017-1e-3 2.09-0.028 3.166-0.144 5.613 3.378 9.011 8.991 8.884 1.128-0.026 2.235-0.015 3.243 0.054 3.254 0.223 5.649 1.196 8.263 1.196 3.326 0 6.666-0.25 9.953-0.623 1.377-0.156 2.659-0.573 4.041-0.573 1.695 0 3.381 0.137 5.074 0.184 2.212 0.062 4.43-0.092 6.638-0.092 2.302 0 6.969-0.066 8.355-0.086 0.265-4e-3 0.523 0 0.787 0.014 0.421 0.021 1.155 0.057 2.063 0.102 5.973 0.295 9.955-3.891 9.778-9.869-0.024-0.812-0.035-1.607-0.025-2.357 0.041-3.29 0.722-5.595 0.856-8.424 0.095-2.023 0.19-4.049 0.252-6.08 0.168-5.498 0.098-11.059 0.098-16.572 0-7.0167-0.253-14.064-0.629-20.997-0.157-2.904-0.577-5.6089-0.577-8.5242 0-3.5756 0.138-7.1327 0.185-10.706 0.062-4.6659-0.092-9.3439-0.092-14.002 0-5.7448 0.378-11.376 0.458-17.111 0.075-5.3764 0.06-14.512 0.059-14.979v-0.0411 0c0.019-6.1371-6.361-12.424-12.49-12.101-0.118 0.00624-0.227 0.01251-0.326 0.01879-2.606 0.16609-5.649-0.01419-8.263-0.01419-3.326 0-6.666-0.25082-9.953-0.62369-1.376-0.15618-2.659-0.57257-4.04-0.57257-1.695 0-3.381 0.13704-5.075 0.18404-2.212 0.06138-4.429-0.09202-6.638-0.09202-2.723 0-5.311 0.92094-8.752 1.1184-0.264 0.01519-0.535 0.02719-0.81 0.03629-6.299 0.20827-11.653 5.6779-11.399 11.975v0c0.017 0.4388-0.016 0.3096-0.051 0.7474-0.126 1.5593-0.416 5.5301-0.31 7.7693 0.095 2.0229 0.19 4.0489 0.252 6.0798 0.168 5.4982 0.098 11.059 0.098 16.572 0 7.0165-0.253 14.064-0.629 20.997-0.157 2.904-0.577 5.609-0.577 8.5242 0 3.5756 0.138 7.1327 0.185 10.706 0.062 4.666-0.092 9.3439-0.092 14.002 0 5.745 0.379 11.376 0.458 17.111 0.077 5.518 0.608 9.482 0.669 14.998z" stroke="#111010" stroke-linecap="round" stroke-width="2"/>
<path d="m264.99 138.02c-0.546 0-1.063-9e-3 -1.597 0.144-0.806 0.229-1.548 0.072-2.353 0.048-2.055-0.064-4.089-0.214-6.145-0.293-2.135-0.083-4.233-0.474-6.373-0.474-1.735 0-3.477 0.16-5.215 0.096-1.33-0.049-2.655-0.191-3.987-0.191-1.086 0-2.093 0.433-3.175 0.595-2.582 0.389-5.207 0.65-7.82 0.65-2.054 0-4.125 0.071-6.172-0.102-0.757-0.063-1.511-0.162-2.265-0.26-1.054-0.138-2.115-0.111-3.165-0.234-0.221-0.026-0.82 0.069-1.065 0.139-0.414 0.118-3.105 0.235-3.416 0.095" stroke="#CF1A1A" stroke-linecap="round" stroke-width="3"/>
<path d="m264.99 156.67c-0.546 0-1.063-8e-3 -1.597 0.144-0.806 0.229-1.548 0.073-2.353 0.048-2.055-0.063-4.089-0.213-6.145-0.293-2.135-0.082-4.233-0.473-6.373-0.473-1.735 0-3.477 0.159-5.215 0.096-1.33-0.049-2.655-0.192-3.987-0.192-1.086 0-2.093 0.433-3.175 0.596-2.582 0.388-5.207 0.649-7.82 0.649-2.054 0-4.125 0.072-6.172-0.101-0.757-0.064-1.511-0.162-2.265-0.261-1.054-0.138-2.115-0.11-3.165-0.234-0.221-0.026-0.82 0.069-1.065 0.139-0.414 0.118-3.105 0.236-3.416 0.095" stroke="#CF1A1A" stroke-linecap="round" stroke-width="3"/>
<path d="m267.38 160c0 0.559-7e-3 1.087 0.114 1.635 0.182 0.824 0.058 1.584 0.038 2.409-0.05 2.103-0.169 4.186-0.232 6.29-0.066 2.186-0.376 4.334-0.376 6.524 0 1.776 0.127 3.56 0.076 5.339-0.039 1.363-0.152 2.719-0.152 4.082 0 1.112 0.344 2.143 0.473 3.25 0.308 2.644 0.515 5.331 0.515 8.007 0 2.102 0.057 4.222-0.08 6.318-0.051 0.775-0.129 1.547-0.207 2.319-0.109 1.079-0.087 2.165-0.186 3.24-0.02 0.226 0.055 0.839 0.111 1.091 0.093 0.423 0.187 3.178 0.075 3.496" stroke="#CF1A1A" stroke-linecap="round" stroke-width="3"/>
<path d="m287.38 160c0 0.559-7e-3 1.087 0.114 1.635 0.182 0.824 0.058 1.584 0.038 2.409-0.05 2.103-0.169 4.186-0.232 6.29-0.066 2.186-0.376 4.334-0.376 6.524 0 1.776 0.127 3.56 0.076 5.339-0.039 1.363-0.152 2.719-0.152 4.082 0 1.112 0.344 2.143 0.473 3.25 0.308 2.644 0.515 5.331 0.515 8.007 0 2.102 0.057 4.222-0.08 6.318-0.051 0.775-0.129 1.547-0.207 2.319-0.109 1.079-0.087 2.165-0.186 3.24-0.02 0.226 0.055 0.839 0.111 1.091 0.093 0.423 0.187 3.178 0.075 3.496" stroke="#CF1A1A" stroke-linecap="round" stroke-width="3"/>
<path d="m287.38 116c0 0.559-7e-3 1.088 0.114 1.635 0.182 0.824 0.058 1.584 0.038 2.409-0.05 2.103-0.169 4.186-0.232 6.29-0.066 2.187-0.376 4.334-0.376 6.524" stroke="#CF1A1A" stroke-linecap="round" stroke-width="3"/>
<path d="m267.31 116c0 0.559-7e-3 1.088 0.114 1.635 0.182 0.824 0.058 1.584 0.038 2.409-0.05 2.103-0.169 4.186-0.232 6.29-0.066 2.187-0.376 4.334-0.376 6.524" stroke="#CF1A1A" stroke-linecap="round" stroke-width="3"/>
</svg>

<svg width="351" height="251" viewBox="0 0 351 251" fill="none" xmlns="http://www.w3.org/2000/svg">
<path d="M142.88 185.919V185.968M260.729 219.485C261.746 219.474 262.819 219.486 263.895 219.514C269.508 219.658 272.906 216.136 272.779 210.523C272.753 209.395 272.764 208.288 272.833 207.279C273.056 204.026 274.029 201.63 274.029 199.017C274.029 195.691 273.779 192.35 273.406 189.064C273.25 187.687 272.833 186.405 272.833 185.023C272.833 183.328 272.97 181.642 273.017 179.948C273.079 177.737 272.925 175.519 272.925 173.311C272.925 171.008 272.859 166.342 272.839 164.956C272.835 164.691 272.839 164.433 272.853 164.168C272.874 163.747 272.91 163.014 272.955 162.106C273.25 156.132 269.064 152.15 263.086 152.328C262.274 152.352 261.479 152.362 260.729 152.353C257.439 152.311 255.134 151.631 252.305 151.497C250.282 151.402 248.256 151.306 246.225 151.245C240.727 151.077 235.166 151.147 229.653 151.147C222.636 151.147 215.589 151.4 208.656 151.776C205.752 151.933 203.047 152.353 200.131 152.353C196.556 152.353 192.999 152.215 189.426 152.167C184.76 152.105 180.082 152.26 175.424 152.26C169.679 152.26 164.047 151.881 158.313 151.801C152.936 151.726 143.8 151.742 143.334 151.743C143.319 151.743 143.307 151.743 143.292 151.743V151.743C137.155 151.723 130.869 158.104 131.192 164.233C131.198 164.351 131.204 164.46 131.21 164.559C131.377 167.165 131.196 170.208 131.196 172.821C131.196 176.147 130.945 179.488 130.573 182.775C130.416 184.151 130 185.433 130 186.815C130 188.51 130.137 190.196 130.184 191.89C130.245 194.102 130.092 196.319 130.092 198.527C130.092 201.25 131.013 203.839 131.21 207.279C131.226 207.544 131.238 207.815 131.247 208.09C131.455 214.389 136.925 219.743 143.222 219.489V219.489C143.661 219.471 143.532 219.505 143.97 219.54C145.529 219.666 149.5 219.956 151.739 219.85C153.762 219.755 155.788 219.659 157.819 219.598C163.317 219.43 168.877 219.5 174.391 219.5C181.407 219.5 188.454 219.752 195.388 220.128C198.292 220.286 200.997 220.706 203.912 220.706C207.488 220.706 211.045 220.568 214.618 220.52C219.284 220.458 223.962 220.613 228.62 220.613C234.365 220.613 239.996 220.234 245.731 220.154C251.249 220.077 255.213 219.547 260.729 219.485Z" stroke="#111010" stroke-width="2" stroke-linecap="round"/>
<path d="M314.919 118.851L314.87 118.851M281.353 236.699C281.364 237.716 281.352 238.79 281.324 239.866C281.181 245.479 284.702 248.877 290.315 248.75C291.443 248.724 292.55 248.735 293.559 248.804C296.812 249.027 299.208 250 301.821 250C305.147 250 308.488 249.749 311.774 249.376C313.151 249.22 314.433 248.804 315.815 248.804C317.51 248.804 319.196 248.941 320.89 248.988C323.102 249.049 325.319 248.896 327.527 248.896C329.83 248.896 334.496 248.83 335.882 248.81C336.147 248.806 336.405 248.81 336.67 248.823C337.091 248.844 337.824 248.881 338.732 248.926C344.706 249.22 348.688 245.034 348.51 239.056C348.486 238.245 348.476 237.45 348.485 236.699C348.527 233.41 349.208 231.105 349.341 228.275C349.436 226.253 349.532 224.226 349.594 222.196C349.761 216.697 349.691 211.137 349.691 205.624C349.691 198.607 349.439 191.56 349.063 184.626C348.905 181.722 348.485 179.017 348.485 176.102C348.485 172.527 348.623 168.969 348.671 165.397C348.733 160.731 348.578 156.053 348.578 151.394C348.578 145.65 348.957 140.018 349.037 134.283C349.112 128.907 349.096 119.771 349.096 119.304C349.096 119.289 349.096 119.278 349.096 119.263V119.263C349.115 113.126 342.734 106.839 336.605 107.162C336.487 107.169 336.378 107.175 336.279 107.181C333.673 107.347 330.63 107.167 328.017 107.167C324.691 107.167 321.35 106.916 318.064 106.543C316.687 106.387 315.405 105.971 314.023 105.971C312.328 105.971 310.642 106.108 308.948 106.155C306.737 106.216 304.519 106.063 302.311 106.063C299.588 106.063 296.999 106.984 293.559 107.181C293.294 107.196 293.023 107.208 292.748 107.217C286.449 107.426 281.095 112.895 281.349 119.193V119.193C281.367 119.632 281.333 119.503 281.298 119.94C281.172 121.5 280.882 125.47 280.988 127.71C281.083 129.733 281.179 131.759 281.241 133.789C281.408 139.288 281.339 144.848 281.339 150.362C281.339 157.378 281.086 164.425 280.71 171.359C280.552 174.263 280.132 176.968 280.132 179.883C280.132 183.458 280.27 187.016 280.318 190.588C280.38 195.254 280.225 199.932 280.225 204.591C280.225 210.336 280.604 215.967 280.684 221.702C280.761 227.22 281.292 231.184 281.353 236.699Z" stroke="#111010" stroke-width="2" stroke-linecap="round"/>
<path d="M239.243 13.88L239.194 13.88M205.676 131.729C205.688 132.746 205.675 133.819 205.648 134.895C205.504 140.508 209.026 143.906 214.639 143.779C215.767 143.753 216.874 143.764 217.882 143.833C221.136 144.056 223.531 145.029 226.145 145.029C229.471 145.029 232.811 144.779 236.098 144.406C237.475 144.25 238.757 143.833 240.139 143.833C241.834 143.833 243.52 143.97 245.213 144.017C247.425 144.079 249.643 143.925 251.851 143.925C254.153 143.925 258.82 143.859 260.206 143.839C260.471 143.835 260.729 143.839 260.993 143.853C261.414 143.874 262.148 143.91 263.056 143.955C269.029 144.25 273.011 140.064 272.834 134.086C272.81 133.274 272.799 132.479 272.809 131.729C272.85 128.439 273.531 126.134 273.665 123.305C273.76 121.282 273.855 119.256 273.917 117.225C274.085 111.727 274.015 106.166 274.015 100.653C274.015 93.6363 273.762 86.5893 273.386 79.6556C273.229 76.7516 272.809 74.0467 272.809 71.1314C272.809 67.5558 272.947 63.9987 272.994 60.4259C273.056 55.76 272.902 51.082 272.902 46.4236C272.902 40.6788 273.28 35.0471 273.36 29.3125C273.435 23.9361 273.42 14.8 273.419 14.3335C273.419 14.3185 273.419 14.3074 273.419 14.2924V14.2924C273.438 8.15534 267.058 1.86862 260.929 2.19166C260.811 2.1979 260.702 2.20417 260.603 2.21045C257.997 2.37654 254.954 2.19626 252.34 2.19626C249.014 2.19626 245.674 1.94544 242.387 1.57257C241.011 1.41639 239.728 1 238.347 1C236.652 1 234.966 1.13704 233.272 1.18404C231.06 1.24542 228.843 1.09202 226.634 1.09202C223.911 1.09202 221.323 2.01296 217.882 2.21045C217.618 2.22564 217.347 2.23764 217.072 2.24674C210.773 2.45501 205.419 7.92464 205.673 14.2222V14.2222C205.69 14.661 205.657 14.5318 205.622 14.9696C205.496 16.5289 205.206 20.4997 205.312 22.7389C205.407 24.7618 205.502 26.7878 205.564 28.8187C205.732 34.3169 205.662 39.8774 205.662 45.3908C205.662 52.4073 205.409 59.4543 205.033 66.388C204.876 69.292 204.456 71.997 204.456 74.9122C204.456 78.4878 204.594 82.0449 204.641 85.6177C204.703 90.2837 204.549 94.9616 204.549 99.62C204.549 105.365 204.928 110.996 205.007 116.731C205.084 122.249 205.615 126.213 205.676 131.729Z" stroke="#111010" stroke-width="2" stroke-linecap="round"/>
<path d="M264.99 138.021C264.444 138.021 263.927 138.012 263.393 138.165C262.587 138.394 261.845 138.237 261.04 138.213C258.985 138.149 256.951 137.999 254.895 137.92C252.76 137.837 250.662 137.446 248.522 137.446C246.787 137.446 245.045 137.606 243.307 137.542C241.977 137.493 240.652 137.351 239.32 137.351C238.234 137.351 237.227 137.784 236.145 137.946C233.563 138.335 230.938 138.596 228.325 138.596C226.271 138.596 224.2 138.667 222.153 138.494C221.396 138.431 220.642 138.332 219.888 138.234C218.834 138.096 217.773 138.123 216.723 138C216.502 137.974 215.903 138.069 215.658 138.139C215.244 138.257 212.553 138.374 212.242 138.234" stroke="#CF1A1A" stroke-width="3" stroke-linecap="round"/>
<path d="M264.99 156.67C264.444 156.67 263.927 156.662 263.393 156.814C262.587 157.043 261.845 156.887 261.04 156.862C258.985 156.799 256.951 156.649 254.895 156.569C252.76 156.487 250.662 156.096 248.522 156.096C246.787 156.096 245.045 156.255 243.307 156.192C241.977 156.143 240.652 156 239.32 156C238.234 156 237.227 156.433 236.145 156.596C233.563 156.984 230.938 157.245 228.325 157.245C226.271 157.245 224.2 157.317 222.153 157.144C221.396 157.08 220.642 156.982 219.888 156.883C218.834 156.745 217.773 156.773 216.723 156.649C216.502 156.623 215.903 156.718 215.658 156.788C215.244 156.906 212.553 157.024 212.242 156.883" stroke="#CF1A1A" stroke-width="3" stroke-linecap="round"/>
<path d="M267.385 160C267.385 160.559 267.378 161.087 267.499 161.635C267.681 162.459 267.557 163.219 267.537 164.044C267.487 166.147 267.368 168.23 267.305 170.334C267.239 172.52 266.929 174.668 266.929 176.858C266.929 178.634 267.056 180.418 267.005 182.197C266.966 183.56 266.853 184.916 266.853 186.279C266.853 187.391 267.197 188.422 267.326 189.529C267.634 192.173 267.841 194.86 267.841 197.536C267.841 199.638 267.898 201.758 267.761 203.854C267.71 204.629 267.632 205.401 267.554 206.173C267.445 207.252 267.467 208.338 267.368 209.413C267.348 209.639 267.423 210.252 267.479 210.504C267.572 210.927 267.666 213.682 267.554 214" stroke="#CF1A1A" stroke-width="3" stroke-linecap="round"/>
<path d="M287.385 160C287.385 160.559 287.378 161.087 287.499 161.635C287.681 162.459 287.557 163.219 287.537 164.044C287.487 166.147 287.368 168.23 287.305 170.334C287.239 172.52 286.929 174.668 286.929 176.858C286.929 178.634 287.056 180.418 287.005 182.197C286.966 183.56 286.853 184.916 286.853 186.279C286.853 187.391 287.197 188.422 287.326 189.529C287.634 192.173 287.841 194.86 287.841 197.536C287.841 199.638 287.898 201.758 287.761 203.854C287.71 204.629 287.632 205.401 287.554 206.173C287.445 207.252 287.467 208.338 287.368 209.413C287.348 209.639 287.423 210.252 287.479 210.504C287.572 210.927 287.666 213.682 287.554 214" stroke="#CF1A1A" stroke-width="3" stroke-linecap="round"/>
<path d="M287.385 116C287.385 116.559 287.378 117.088 287.499 117.635C287.681 118.459 287.557 119.219 287.537 120.044C287.487 122.147 287.368 124.23 287.305 126.334C287.239 128.521 286.929 130.668 286.929 132.858" stroke="#CF1A1A" stroke-width="3" stroke-linecap="round"/>
<path d="M267.309 116C267.309 116.559 267.302 117.088 267.423 117.635C267.605 118.459 267.481 119.219 267.461 120.044C267.411 122.147 267.292 124.23 267.229 126.334C267.163 128.521 266.853 130.668 266.853 132.858" stroke="#CF1A1A" stroke-width="3" stroke-linecap="round"/>
</svg>
